; generated by Slic3r 1.34.0 on 2017-04-18 at 17:41:50

; external perimeters extrusion width = 0.40mm
; perimeters extrusion width = 0.48mm
; infill extrusion width = 0.48mm
; solid infill extrusion width = 0.48mm
; top infill extrusion width = 0.48mm
; support material extrusion width = 0.45mm

M107
M83 ; use relative distances for extrusion
G28  ; home
G1 X0 Y98 F9000 ; Go to the middle of the front
G1 Z0.1 ; close to the bed
M104 S230 ; set extruder temp
M190 S75 ; set bed temp & wait
M109 S230 ; set extruder temp & wait
G92 E0
G1 X50 E5 F200 ; make a thick line to prime extruder
;G1 E-1.0 F1200 ; retract a little
G1 Z0.3 ; lift Z
G21 ; set units to millimeters
G90 ; use absolute coordinates
M83 ; use relative distances for extrusion
G1 Z0.300 F6000.000
G1 E-2.00000 F1200.00000
G1 X41.622 Y84.258 F6000.000
G1 E2.00000 F1200.00000
G1 F1125
G1 X40.886 Y85.076 E0.02094
G1 X39.927 Y85.617 E0.02094
G1 X38.842 Y85.826 E0.02103
G1 X-36.077 Y85.828 E1.42533
G1 X-40.864 Y85.650 E0.09114
G1 X-41.523 Y85.551 E0.01267
G1 X-42.393 Y85.200 E0.01785
G1 X-43.131 Y84.629 E0.01776
G1 X-43.690 Y83.876 E0.01785
G1 X-44.022 Y83.003 E0.01776
G1 X-62.460 Y-5.463 E1.71924
G1 X-63.072 Y-9.828 E0.08386
G1 X-63.374 Y-14.124 E0.08193
G1 X-63.380 Y-18.668 E0.08644
G1 X-63.039 Y-23.325 E0.08883
G1 X-62.454 Y-27.469 E0.07962
G1 X-61.533 Y-31.797 E0.08419
G1 X-60.312 Y-36.055 E0.08427
G1 X-58.704 Y-40.429 E0.08866
G1 X-57.001 Y-44.247 E0.07953
G1 X-54.980 Y-48.054 E0.08202
G1 X-52.582 Y-51.903 E0.08627
G1 X-49.973 Y-55.494 E0.08445
G1 X-46.969 Y-59.053 E0.08860
G1 X-44.061 Y-62.061 E0.07960
G1 X-40.863 Y-64.944 E0.08193
G1 X-37.382 Y-67.676 E0.08418
G1 X-33.623 Y-70.220 E0.08636
G1 X-29.783 Y-72.438 E0.08436
G1 X-25.802 Y-74.381 E0.08427
G1 X-21.481 Y-76.113 E0.08857
G1 X-17.500 Y-77.404 E0.07962
G1 X-13.322 Y-78.450 E0.08193
G1 X-8.962 Y-79.228 E0.08427
G1 X-4.453 Y-79.710 E0.08627
G1 X0.040 Y-79.866 E0.08553
G1 X4.560 Y-79.701 E0.08605
G1 X8.848 Y-79.246 E0.08203
G1 X12.966 Y-78.522 E0.07955
G1 X17.491 Y-77.407 E0.08867
G1 X21.703 Y-76.038 E0.08425
G1 X25.812 Y-74.376 E0.08433
G1 X29.887 Y-72.380 E0.08633
G1 X33.718 Y-70.158 E0.08426
G1 X37.285 Y-67.749 E0.08188
G1 X40.582 Y-65.176 E0.07958
G1 X44.054 Y-62.068 E0.08865
G1 X47.130 Y-58.882 E0.08425
G1 X49.982 Y-55.483 E0.08442
G1 X52.639 Y-51.816 E0.08615
G1 X54.982 Y-48.050 E0.08437
G1 X57.000 Y-44.250 E0.08186
G1 X58.706 Y-40.425 E0.07969
G1 X60.313 Y-36.053 E0.08862
G1 X61.528 Y-31.818 E0.08381
G1 X62.473 Y-27.347 E0.08695
G1 X63.071 Y-23.080 E0.08197
G1 X63.380 Y-18.672 E0.08407
G1 X63.374 Y-14.124 E0.08651
G1 X63.072 Y-9.826 E0.08198
G1 X62.461 Y-5.468 E0.08372
G1 X61.553 Y-1.181 E0.08338
G1 X42.062 Y83.244 E1.64843
G1 X41.646 Y84.203 E0.01988
G1 E-2.00000 F1200.00000
G1 X38.747 Y82.409 F6000.000
G1 E2.00000 F1200.00000
G1 F1125
G1 X38.747 Y44.921 E0.65657
G1 X37.976 Y44.921 E0.01351
G1 X37.976 Y82.235 E0.65353
G1 X37.204 Y82.235 E0.01351
G1 X37.204 Y44.921 E0.65353
G1 X36.433 Y44.921 E0.01351
G1 X36.433 Y82.235 E0.65353
G1 X35.662 Y82.235 E0.01351
G1 X35.662 Y45.558 E0.64237
G1 X35.472 Y46.207 E0.01185
G1 X34.891 Y48.814 E0.04678
G1 X34.891 Y82.235 E0.58534
G1 X34.119 Y82.235 E0.01351
G1 X34.119 Y51.322 E0.54143
G1 X33.348 Y51.674 E0.01485
G1 X33.348 Y82.235 E0.53527
G1 X32.577 Y82.235 E0.01351
G1 X32.577 Y52.025 E0.52911
G1 X31.806 Y52.377 E0.01485
G1 X31.806 Y82.235 E0.52295
G1 X31.034 Y82.235 E0.01351
G1 X31.034 Y52.729 E0.51679
G1 X30.263 Y53.080 E0.01485
G1 X30.263 Y82.235 E0.51063
G1 X29.492 Y82.235 E0.01351
G1 X29.492 Y53.432 E0.50446
G1 X28.721 Y53.728 E0.01447
G1 X28.721 Y82.235 E0.49928
G1 X27.949 Y82.235 E0.01351
G1 X27.949 Y54.021 E0.49416
G1 X27.178 Y54.313 E0.01444
G1 X27.178 Y82.235 E0.48904
G1 X26.407 Y82.235 E0.01351
G1 X26.407 Y54.605 E0.48393
G1 X25.636 Y54.897 E0.01444
G1 X25.636 Y82.235 E0.47881
G1 X24.865 Y82.235 E0.01351
G1 X24.865 Y55.189 E0.47370
G1 X24.093 Y55.434 E0.01417
G1 X24.093 Y82.235 E0.46940
G1 X23.698 Y82.235 E0.00692
G1 X23.698 Y76.850 E0.09433
G1 X23.322 Y76.850 E0.00659
G1 X23.322 Y55.670 E0.37095
G1 X22.551 Y55.905 E0.01412
G1 X22.551 Y76.850 E0.36683
G1 X21.780 Y76.850 E0.01351
G1 X21.780 Y56.140 E0.36271
G1 X21.008 Y56.376 E0.01412
G1 X21.008 Y76.850 E0.35858
G1 X20.237 Y76.850 E0.01351
G1 X20.237 Y56.611 E0.35446
G1 X19.466 Y56.815 E0.01397
G1 X19.466 Y76.850 E0.35089
G1 X18.695 Y76.850 E0.01351
G1 X18.695 Y56.996 E0.34772
G1 X18.313 Y57.085 E0.00687
G1 X18.313 Y61.078 E0.06993
G1 X17.923 Y61.078 E0.00682
G1 X17.923 Y76.850 E0.27622
G1 X17.152 Y76.850 E0.01351
G1 X17.152 Y61.078 E0.27622
G1 X16.381 Y61.078 E0.01351
G1 X16.381 Y76.850 E0.27622
G1 X15.610 Y76.850 E0.01351
G1 X15.610 Y61.078 E0.27622
G1 X14.838 Y61.078 E0.01351
G1 X14.838 Y76.850 E0.27622
G1 X14.067 Y76.850 E0.01351
G1 X14.067 Y61.078 E0.27622
G1 X13.296 Y61.078 E0.01351
G1 X13.296 Y76.850 E0.27622
G1 X12.525 Y76.850 E0.01351
G1 X12.525 Y61.078 E0.27622
G1 X11.753 Y61.078 E0.01351
G1 X11.753 Y76.850 E0.27622
G1 X10.982 Y76.850 E0.01351
G1 X10.982 Y61.078 E0.27622
G1 X10.211 Y61.078 E0.01351
G1 X10.211 Y76.850 E0.27622
G1 X9.440 Y76.850 E0.01351
G1 X9.440 Y61.078 E0.27622
G1 X8.669 Y61.078 E0.01351
G1 X8.669 Y76.850 E0.27622
G1 X7.897 Y76.850 E0.01351
G1 X7.897 Y61.078 E0.27622
G1 X7.126 Y61.078 E0.01351
G1 X7.126 Y76.850 E0.27622
G1 X6.355 Y76.850 E0.01351
G1 X6.355 Y61.078 E0.27622
G1 X5.584 Y61.078 E0.01351
G1 X5.584 Y76.850 E0.27622
G1 X4.812 Y76.850 E0.01351
G1 X4.812 Y61.078 E0.27622
G1 X4.041 Y61.078 E0.01351
G1 X4.041 Y76.850 E0.27622
G1 X3.270 Y76.850 E0.01351
G1 X3.270 Y61.078 E0.27622
G1 X2.499 Y61.078 E0.01351
G1 X2.499 Y76.850 E0.27622
G1 X2.156 Y76.850 E0.00601
G1 X2.156 Y71.464 E0.09433
G1 X1.727 Y71.464 E0.00750
G1 X1.727 Y61.078 E0.18190
G1 X0.956 Y61.078 E0.01351
G1 X0.956 Y71.464 E0.18190
G1 X0.185 Y71.464 E0.01351
G1 X0.185 Y61.078 E0.18190
G1 X-0.586 Y61.078 E0.01351
G1 X-0.586 Y71.464 E0.18190
G1 X-1.358 Y71.464 E0.01351
G1 X-1.358 Y61.078 E0.18190
G1 X-2.129 Y61.078 E0.01351
G1 X-2.129 Y71.464 E0.18190
G1 X-2.900 Y71.464 E0.01351
G1 X-2.900 Y61.078 E0.18190
G1 X-3.671 Y61.078 E0.01351
G1 X-3.671 Y76.850 E0.27622
G1 X-4.443 Y76.850 E0.01351
G1 X-4.443 Y61.078 E0.27622
G1 X-5.214 Y61.078 E0.01351
G1 X-5.214 Y76.850 E0.27622
G1 X-5.985 Y76.850 E0.01351
G1 X-5.985 Y61.078 E0.27622
G1 X-6.756 Y61.078 E0.01351
G1 X-6.756 Y76.850 E0.27622
G1 X-7.527 Y76.850 E0.01351
G1 X-7.527 Y61.078 E0.27622
G1 X-8.299 Y61.078 E0.01351
G1 X-8.299 Y76.850 E0.27622
G1 X-9.070 Y76.850 E0.01351
G1 X-9.070 Y61.078 E0.27622
G1 X-9.841 Y61.078 E0.01351
G1 X-9.841 Y76.850 E0.27622
G1 X-10.612 Y76.850 E0.01351
G1 X-10.612 Y61.078 E0.27622
G1 X-11.384 Y61.078 E0.01351
G1 X-11.384 Y76.850 E0.27622
G1 X-12.155 Y76.850 E0.01351
G1 X-12.155 Y61.078 E0.27622
G1 X-12.926 Y61.078 E0.01351
G1 X-12.926 Y76.850 E0.27622
G1 X-13.697 Y76.850 E0.01351
G1 X-13.697 Y61.078 E0.27622
G1 X-14.469 Y61.078 E0.01351
G1 X-14.469 Y76.850 E0.27622
G1 X-15.240 Y76.850 E0.01351
G1 X-15.240 Y61.078 E0.27622
G1 X-16.011 Y61.078 E0.01351
G1 X-16.011 Y76.850 E0.27622
G1 X-16.782 Y76.850 E0.01351
G1 X-16.782 Y61.078 E0.27622
G1 X-17.554 Y61.078 E0.01351
G1 X-17.554 Y76.850 E0.27622
G1 X-18.325 Y76.850 E0.01351
G1 X-18.325 Y61.078 E0.27622
G1 X-19.096 Y61.078 E0.01351
G1 X-19.096 Y76.850 E0.27622
G1 X-19.867 Y76.850 E0.01351
G1 X-19.867 Y56.721 E0.35254
G1 X-20.639 Y56.489 E0.01411
G1 X-20.639 Y76.850 E0.35661
G1 X-21.410 Y76.850 E0.01351
G1 X-21.410 Y56.253 E0.36073
G1 X-22.181 Y56.018 E0.01412
G1 X-22.181 Y76.850 E0.36485
G1 X-22.952 Y76.850 E0.01351
G1 X-22.952 Y55.782 E0.36898
G1 X-23.723 Y55.547 E0.01412
G1 X-23.723 Y76.850 E0.37310
G1 X-24.495 Y76.850 E0.01351
G1 X-24.495 Y55.312 E0.37722
G1 X-25.266 Y55.037 E0.01434
G1 X-25.266 Y82.235 E0.47636
G1 X-26.037 Y82.235 E0.01351
G1 X-26.037 Y54.745 E0.48148
G1 X-26.808 Y54.453 E0.01444
G1 X-26.808 Y82.235 E0.48659
G1 X-27.580 Y82.235 E0.01351
G1 X-27.580 Y54.161 E0.49171
G1 X-28.351 Y53.869 E0.01444
G1 X-28.351 Y82.235 E0.49682
G1 X-29.122 Y82.235 E0.01351
G1 X-29.122 Y53.576 E0.50194
G1 X-29.451 Y53.451 E0.00616
G1 X-29.893 Y53.249 E0.00852
G1 X-29.893 Y82.235 E0.50767
G1 X-30.665 Y82.235 E0.01351
G1 X-30.665 Y52.897 E0.51383
G1 X-31.436 Y52.546 E0.01485
G1 X-31.436 Y82.235 E0.51999
G1 X-32.207 Y82.235 E0.01351
G1 X-32.207 Y52.194 E0.52615
G1 X-32.978 Y51.842 E0.01485
G1 X-32.978 Y82.235 E0.53231
G1 X-33.750 Y82.235 E0.01351
G1 X-33.750 Y51.490 E0.53847
G1 X-34.166 Y51.301 E0.00802
G1 X-34.401 Y51.011 E0.00653
G1 X-34.521 Y50.473 E0.00965
G1 X-34.521 Y82.235 E0.55629
G1 X-35.292 Y82.235 E0.01351
G1 X-35.292 Y47.014 E0.61687
G1 X-35.472 Y46.207 E0.01448
G1 X-35.850 Y44.921 E0.02348
G1 X-36.063 Y44.921 E0.00373
G1 X-36.063 Y60.693 E0.27622
G1 X-36.835 Y60.693 E0.01351
G1 X-36.835 Y44.921 E0.27622
G1 X-37.606 Y44.921 E0.01351
G1 X-37.606 Y60.693 E0.27622
G1 X-38.377 Y60.693 E0.01351
G1 X-38.377 Y44.921 E0.27622
G1 X-39.148 Y44.921 E0.01351
G1 X-39.148 Y60.693 E0.27622
G1 X-39.919 Y60.693 E0.01351
G1 X-39.919 Y44.921 E0.27622
G1 X-40.691 Y44.921 E0.01351
G1 X-40.691 Y60.866 E0.27926
G1 E-2.00000 F1200.00000
G1 X-40.691 Y66.290 F6000.000
G1 E2.00000 F1200.00000
G1 F1125
G1 X-40.691 Y82.235 E0.27926
G1 X-39.919 Y82.235 E0.01351
G1 X-39.919 Y66.464 E0.27622
G1 X-39.148 Y66.464 E0.01351
G1 X-39.148 Y82.235 E0.27622
G1 X-38.377 Y82.235 E0.01351
G1 X-38.377 Y66.464 E0.27622
G1 X-37.606 Y66.464 E0.01351
G1 X-37.606 Y82.235 E0.27622
G1 X-36.835 Y82.235 E0.01351
G1 X-36.835 Y66.464 E0.27622
G1 X-36.063 Y66.464 E0.01351
G1 X-36.063 Y82.409 E0.27926
G1 E-2.00000 F1200.00000
G1 X-2.129 Y-70.500 F6000.000
G1 E2.00000 F1200.00000
G1 F1125
G1 X-2.129 Y-71.787 E0.02255
G1 X-2.073 Y-72.042 E0.00457
G1 X-1.970 Y-72.325 E0.00527
G1 X-1.829 Y-72.591 E0.00527
G1 X-1.652 Y-72.834 E0.00527
G1 X-1.358 Y-73.122 E0.00722
G1 X-1.358 Y-69.773 E0.05866
G1 X-1.206 Y-69.660 E0.00331
G1 X-0.945 Y-69.509 E0.00527
G1 X-0.586 Y-69.374 E0.00672
G1 X-0.586 Y-73.522 E0.07265
G1 X-0.225 Y-73.593 E0.00644
G1 X0.185 Y-73.596 E0.00719
G1 X0.185 Y-69.300 E0.07523
G1 X0.522 Y-69.355 E0.00598
G1 X0.956 Y-69.515 E0.00811
G1 X0.956 Y-73.381 E0.06770
G1 X1.328 Y-73.147 E0.00769
G1 X1.551 Y-72.946 E0.00527
G1 X1.727 Y-72.738 E0.00478
G1 X1.727 Y-69.886 E0.04995
G1 Z0.300 F6000.000
G1 E-2.00000 F1200.00000
G1 X1.124 Y-48.628 F6000.000
G1 E2.00000 F1200.00000
G1 F3037.5
G1 X3.366 Y-48.472 E0.03426
G1 X5.591 Y-48.159 E0.03426
G1 X7.790 Y-47.691 E0.03426
G1 X9.950 Y-47.072 E0.03426
G1 X12.062 Y-46.303 E0.03426
G1 X14.116 Y-45.389 E0.03426
G1 X16.100 Y-44.334 E0.03426
G1 X18.006 Y-43.143 E0.03426
G1 X19.824 Y-41.822 E0.03426
G1 X21.546 Y-40.377 E0.03426
G1 X23.163 Y-38.816 E0.03426
G1 X24.667 Y-37.146 E0.03426
G1 X26.050 Y-35.375 E0.03426
G1 X27.307 Y-33.511 E0.03426
G1 X28.460 Y-31.504 E0.03528
G1 X29.416 Y-29.545 E0.03324
G1 X30.258 Y-27.461 E0.03426
G1 X30.953 Y-25.323 E0.03426
G1 X31.496 Y-23.143 E0.03426
G1 X31.887 Y-20.929 E0.03426
G1 X32.122 Y-18.694 E0.03426
G1 X32.200 Y-16.448 E0.03426
G1 X32.122 Y-14.202 E0.03426
G1 X31.887 Y-11.966 E0.03426
G1 X31.496 Y-9.753 E0.03426
G1 X30.932 Y-7.508 E0.03528
G1 X30.258 Y-5.435 E0.03324
G1 X29.416 Y-3.351 E0.03426
G1 X28.431 Y-1.331 E0.03426
G1 X27.307 Y0.616 E0.03426
G1 X26.050 Y2.479 E0.03426
G1 X24.667 Y4.250 E0.03426
G1 X23.163 Y5.920 E0.03426
G1 X21.546 Y7.482 E0.03426
G1 X19.824 Y8.926 E0.03426
G1 X18.006 Y10.247 E0.03426
G1 X16.100 Y11.438 E0.03426
G1 X14.115 Y12.494 E0.03426
G1 X11.999 Y13.431 E0.03528
G1 X9.950 Y14.176 E0.03324
G1 X7.790 Y14.796 E0.03426
G1 X5.591 Y15.263 E0.03426
G1 X3.366 Y15.576 E0.03426
G1 X1.124 Y15.733 E0.03426
G1 X-1.124 Y15.733 E0.03426
G1 X-3.366 Y15.576 E0.03426
G1 X-5.591 Y15.263 E0.03426
G1 X-7.790 Y14.796 E0.03426
G1 X-9.950 Y14.176 E0.03426
G1 X-12.063 Y13.408 E0.03426
G1 X-14.175 Y12.462 E0.03528
G1 X-16.100 Y11.438 E0.03324
G1 X-18.006 Y10.247 E0.03426
G1 X-19.825 Y8.926 E0.03426
G1 X-21.594 Y7.435 E0.03528
G1 X-23.163 Y5.920 E0.03324
G1 X-24.667 Y4.250 E0.03426
G1 X-26.050 Y2.479 E0.03426
G1 X-27.307 Y0.616 E0.03426
G1 X-28.431 Y-1.331 E0.03426
G1 X-29.416 Y-3.351 E0.03426
G1 X-30.258 Y-5.435 E0.03426
G1 X-30.953 Y-7.572 E0.03426
G1 X-31.496 Y-9.753 E0.03426
G1 X-31.887 Y-11.966 E0.03426
G1 X-32.122 Y-14.202 E0.03426
G1 X-32.200 Y-16.448 E0.03426
G1 X-32.122 Y-18.694 E0.03426
G1 X-31.887 Y-20.929 E0.03426
G1 X-31.496 Y-23.143 E0.03426
G1 X-30.953 Y-25.324 E0.03426
G1 X-30.233 Y-27.523 E0.03528
G1 X-29.416 Y-29.545 E0.03324
G1 X-28.431 Y-31.565 E0.03426
G1 X-27.307 Y-33.511 E0.03426
G1 X-26.009 Y-35.428 E0.03528
G1 X-24.667 Y-37.146 E0.03324
G1 X-23.163 Y-38.816 E0.03426
G1 X-21.546 Y-40.377 E0.03426
G1 X-19.824 Y-41.822 E0.03426
G1 X-18.006 Y-43.143 E0.03426
G1 X-16.100 Y-44.334 E0.03426
G1 X-14.116 Y-45.389 E0.03426
G1 X-12.062 Y-46.303 E0.03426
G1 X-9.950 Y-47.072 E0.03426
G1 X-7.790 Y-47.691 E0.03426
G1 X-5.591 Y-48.159 E0.03426
G1 X-3.366 Y-48.472 E0.03426
G1 X-1.124 Y-48.628 E0.03426
G1 X1.064 Y-48.628 E0.03335
G1 E-2.00000 F1200.00000
G1 X0.113 Y-68.300 F6000.000
G1 E2.00000 F1200.00000
G1 F843.75
G1 X-0.124 Y-68.300 E0.00362
G1 X-0.544 Y-68.345 E0.00643
G1 X-0.766 Y-68.392 E0.00346
G1 X-1.180 Y-68.527 E0.00665
G1 X-1.584 Y-68.725 E0.00686
G1 X-1.937 Y-68.963 E0.00649
G1 X-2.108 Y-69.107 E0.00340
G1 X-2.269 Y-69.262 E0.00340
G1 X-2.549 Y-69.596 E0.00665
G1 X-2.780 Y-69.966 E0.00665
G1 X-2.961 Y-70.374 E0.00681
G1 X-3.082 Y-70.793 E0.00665
G1 X-3.142 Y-71.225 E0.00665
G1 X-3.141 Y-71.682 E0.00697
G1 X-3.082 Y-72.103 E0.00649
G1 X-2.957 Y-72.535 E0.00686
G1 X-2.783 Y-72.924 E0.00649
G1 X-2.671 Y-73.117 E0.00340
G1 X-2.547 Y-73.302 E0.00341
G1 X-2.266 Y-73.636 E0.00665
G1 X-1.942 Y-73.928 E0.00665
G1 X-1.762 Y-74.059 E0.00340
G1 X-1.572 Y-74.178 E0.00340
G1 X-1.180 Y-74.369 E0.00665
G1 X-0.766 Y-74.504 E0.00665
G1 X-0.544 Y-74.551 E0.00346
G1 X-0.113 Y-74.596 E0.00659
G1 X0.113 Y-74.596 E0.00346
G1 X0.544 Y-74.551 E0.00659
G1 X0.766 Y-74.504 E0.00346
G1 X1.180 Y-74.369 E0.00665
G1 X1.584 Y-74.171 E0.00686
G1 X1.937 Y-73.932 E0.00649
G1 X2.108 Y-73.789 E0.00340
G1 X2.269 Y-73.634 E0.00340
G1 X2.549 Y-73.300 E0.00665
G1 X2.780 Y-72.930 E0.00665
G1 X2.961 Y-72.522 E0.00681
G1 X3.082 Y-72.103 E0.00665
G1 X3.142 Y-71.671 E0.00665
G1 X3.141 Y-71.214 E0.00697
G1 X3.082 Y-70.792 E0.00649
G1 X2.957 Y-70.360 E0.00686
G1 X2.783 Y-69.972 E0.00649
G1 X2.671 Y-69.779 E0.00340
G1 X2.547 Y-69.593 E0.00341
G1 X2.266 Y-69.259 E0.00665
G1 X1.942 Y-68.968 E0.00665
G1 X1.762 Y-68.836 E0.00340
G1 X1.572 Y-68.718 E0.00340
G1 X1.180 Y-68.527 E0.00665
G1 X0.766 Y-68.392 E0.00665
G1 X0.544 Y-68.345 E0.00346
G1 X0.173 Y-68.306 E0.00568
G1 E-2.00000 F1200.00000
G1 X0.138 Y-67.500 F6000.000
G1 X0.138 Y-67.500 F6000.000
G1 X0.769 Y-58.475 F6000.000
G1 X1.045 Y-58.485 F6000.000
G1 X1.152 Y-58.489 F6000.000
G1 X1.679 Y-58.510 F6000.000
G1 X1.787 Y-58.514 F6000.000
G1 X1.956 Y-58.520 F6000.000
G1 X2.600 Y-58.554 F6000.000
G1 X2.878 Y-58.573 F6000.000
G1 X3.532 Y-58.631 F6000.000
G1 X3.811 Y-58.660 F6000.000
G1 X4.109 Y-58.694 F6000.000
G1 X4.478 Y-58.738 F6000.000
G1 X4.760 Y-58.770 F6000.000
G1 X4.785 Y-58.773 F6000.000
G1 X5.456 Y-58.856 F6000.000
G1 X5.740 Y-58.896 F6000.000
G1 X6.457 Y-59.009 F6000.000
G1 X6.742 Y-59.060 F6000.000
G1 X7.163 Y-59.138 F6000.000
G1 X7.490 Y-59.203 F6000.000
G1 X7.780 Y-59.258 F6000.000
G1 X7.928 Y-59.285 F6000.000
G1 X8.573 Y-59.412 F6000.000
G1 X8.868 Y-59.475 F6000.000
G1 X9.704 Y-59.668 F6000.000
G1 X10.002 Y-59.743 F6000.000
G1 X10.402 Y-59.846 F6000.000
G1 X10.888 Y-59.975 F6000.000
G1 X11.194 Y-60.055 F6000.000
G1 X11.315 Y-60.086 F6000.000
G1 X12.161 Y-60.314 F6000.000
G1 X12.473 Y-60.404 F6000.000
G1 X12.989 Y-60.557 F6000.000
G1 X13.777 Y-60.316 F6000.000
G1 X14.639 Y-60.036 F6000.000
G1 X15.726 Y-59.662 F6000.000
G1 X16.804 Y-59.248 F6000.000
G1 X17.644 Y-58.908 F6000.000
G1 X18.701 Y-58.460 F6000.000
G1 X19.748 Y-57.972 F6000.000
G1 X20.563 Y-57.574 F6000.000
G1 X21.586 Y-57.053 F6000.000
G1 X22.597 Y-56.493 F6000.000
G1 X23.382 Y-56.040 F6000.000
G1 X24.365 Y-55.449 F6000.000
G1 X25.335 Y-54.819 F6000.000
G1 X26.087 Y-54.312 F6000.000
G1 X27.026 Y-53.654 F6000.000
G1 X27.950 Y-52.958 F6000.000
